src/assets/icons/fa/map.svg

<?xml version="1.0" encoding="utf-8"?>
<svg width="1792" height="1792" viewBox="0 0 1792 1792" xmlns="http://www.w3.org/2000/svg"><path d="M512 0q13 0 22.5 9.5t9.5 22.5v1472q0 20-17 28l-480 256q-7 4-15 4-13 0-22.5-9.5t-9.5-22.5v-1472q0-20 17-28l480-256q7-4 15-4zm1248 0q13 0 22.5 9.5t9.5 22.5v1472q0 20-17 28l-480 256q-7 4-15 4-13 0-22.5-9.5t-9.5-22.5v-1472q0-20 17-28l480-256q7-4 15-4zm-1120 0q8 0 14 3l512 256q18 10 18 29v1472q0 13-9.5 22.5t-22.5 9.5q-8 0-14-3l-512-256q-18-10-18-29v-1472q0-13 9.5-22.5t22.5-9.5z"/></svg>

<svg width="1792" height="1792" xmlns="http://www.w3.org/2000/svg"><path d="M512 0q13 0 22.5 9.5T544 32v1472q0 20-17 28L47 1788q-7 4-15 4-13 0-22.5-9.5T0 1760V288q0-20 17-28L497 4q7-4 15-4zm1248 0q13 0 22.5 9.5T1792 32v1472q0 20-17 28l-480 256q-7 4-15 4-13 0-22.5-9.5t-9.5-22.5V288q0-20 17-28L1745 4q7-4 15-4zM640 0q8 0 14 3l512 256q18 10 18 29v1472q0 13-9.5 22.5t-22.5 9.5q-8 0-14-3l-512-256q-18-10-18-29V32q0-13 9.5-22.5T640 0z"/></svg>
